X:2
T:Oats and Beans
M:6/8
K:D
L:1/4
Q:1/2=120
 ff/2fe/2 | dd/2d3/2 | gg/2gf/2 | ee/2e3/2 | fg/2ae/2 | fg/2ag/2 | ff/2ee/2 | dd/2d3/2 |]
